web/packages/design/src/ResourceIcon/assets/discord.svg

<svg width="72" height="72" viewBox="0 0 72 72" fill="none" xmlns="http://www.w3.org/2000/svg">
<g clip-path="url(#clip0_6211_26693)">
<path d="M60.991 13.5701C56.2605 11.4043 51.2666 9.86791 46.1368 9C45.4348 10.2549 44.7997 11.546 44.234 12.8679C38.7698 12.0445 33.2131 12.0445 27.7489 12.8679C27.1829 11.5461 26.5478 10.255 25.8461 9C20.713 9.87524 15.7158 11.4153 10.9806 13.5814C1.57994 27.4899 -0.968436 41.0529 0.30575 54.4233C5.81101 58.4908 11.973 61.5843 18.5238 63.5691C19.9988 61.5852 21.3041 59.4806 22.4256 57.2775C20.2954 56.4819 18.2393 55.5003 16.2812 54.344C16.7965 53.9703 17.3006 53.5852 17.7876 53.2114C23.4852 55.8909 29.7038 57.2801 35.9999 57.2801C42.2961 57.2801 48.5147 55.8909 54.2123 53.2114C54.705 53.6135 55.209 53.9986 55.7187 54.344C53.7568 55.5021 51.697 56.4856 49.5629 57.2831C50.6831 59.4852 51.9884 61.5881 53.4648 63.5691C60.0212 61.5922 66.1879 58.5003 71.6941 54.429C73.1892 38.9235 69.1401 25.4851 60.991 13.5701ZM24.0396 46.2006C20.4889 46.2006 17.5554 42.9783 17.5554 39.0142C17.5554 35.05 20.3869 31.7994 24.0283 31.7994C27.6696 31.7994 30.5804 35.05 30.5181 39.0142C30.4558 42.9783 27.6583 46.2006 24.0396 46.2006ZM47.9603 46.2006C44.4039 46.2006 41.4818 42.9783 41.4818 39.0142C41.4818 35.05 44.3133 31.7994 47.9603 31.7994C51.6073 31.7994 54.4955 35.05 54.4332 39.0142C54.3709 42.9783 51.579 46.2006 47.9603 46.2006Z" fill="#5865F2"/>
</g>
<defs>
<clipPath id="clip0_6211_26693">
<rect width="72" height="72" fill="white"/>
</clipPath>
</defs>
</svg>

<svg xmlns="http://www.w3.org/2000/svg" width="72" height="72" fill="none" viewBox="0 0 72 72"><g clip-path="url(#clip0_6211_26693)"><path fill="#5865f2" d="M60.991 13.57A59.5 59.5 0 0 0 46.137 9a41 41 0 0 0-1.903 3.868 55.3 55.3 0 0 0-16.485 0A41 41 0 0 0 25.846 9a60 60 0 0 0-14.865 4.581C1.58 27.49-.97 41.053.306 54.423a59.9 59.9 0 0 0 18.218 9.146 44 44 0 0 0 3.902-6.291 39 39 0 0 1-6.145-2.934 68 68 0 0 0 1.507-1.133 42.8 42.8 0 0 0 36.424 0c.493.403.997.788 1.507 1.133a39 39 0 0 1-6.156 2.94 43.6 43.6 0 0 0 3.902 6.285 59.6 59.6 0 0 0 18.23-9.14C73.188 38.923 69.14 25.485 60.99 13.57M24.04 46.2c-3.551 0-6.485-3.222-6.485-7.186s2.832-7.215 6.473-7.215 6.552 3.251 6.49 7.215-2.86 7.187-6.478 7.187m23.92 0c-3.556 0-6.478-3.222-6.478-7.186S44.313 31.8 47.96 31.8s6.535 3.251 6.473 7.215-2.854 7.187-6.473 7.187"/></g><defs><clipPath id="clip0_6211_26693"><path fill="#fff" d="M0 0h72v72H0z"/></clipPath></defs></svg>
